X: 21058
T: Junior Gill
R: jig
M: 6/8
K: Edorian
B,2E EDB,|DB,A, A,G,A,|B,EE EDB,|A,B,D EFA|
B,EE EDB,|DB,A, A,G,A,|B,DE GBd|AFD E2D||
B,2E EDB,|DB,A, A,G,A,|B,EB, EB,E|DEF AFD|
B,2E EDB,|DB,A, A,G,A,|B,DE GBd|AFA E2A||
|:B3efg|fdB AFE|D2F EFD|A,B,D EFA|
B3efg|fdB AFA|DFA GBd|1 AFD E2A:|2 AFD E3||

